!!!ONB: MCCC : ICD0004_02 : Extracted Monophonic Melody
!!!COM: Debussy, Claude
!!!OPR: Deux Arabesques
!!!OMV: 2
!!!SCT: CD 74 ; L.66
!!!ODT: 1890///
**kern
*staff1
=1
*clefG2
*k[f#]
*e:
*M4/4
24ee
24ff#
24ee
8a
24aa
24bb
24aa
8dd
24ee
24ff#
24ee
8a
24aa
24bb
24aa
8dd
=2
24ee
24ff#
24ee
8b
24bb
24ccc
24bb
8dd
24ee
24ff#
24ee
8b
24bb
24ccc
24bb
8dd
=3
24ee
24ff#
24ee
8cc
24ccc
24ddd
24ccc
8dd
24ee
24ff#
24ee
8cc
24ccc
24ddd
24ccc
8dd
=4
24ee
24ff#
24ee
8cc
24ccc
24ddd
24ccc
8dd
24ee
24ff#
24ee
8cc
24ccc
24ddd
24ccc
8dd
=5
24ee
24ff#
24ee
8b
24dd
24ee
24dd
8g
24b
24cc
24b
8d
24a
24b
24a
8e
=6
24ee
24ff#
24ee
8b
24dd
24ee
24dd
8g
24b
24cc
24b
8d
24a
24b
24a
8e
=7
24g
24a
24g
8d
12e
12g
12b
24g
24a
24g
8d
12e
12g
12b
=8
24a
24b
24a
8e
8ee
8dd
8bb
8aa
8ff#
8dd
=9
24ee
24ff#
24ee
8b
24dd
24ee
24dd
8g
24b
24cc
24b
8d
24a
24b
24a
8e
=10
24ee
24ff#
24ee
8b
24dd
24ee
24dd
8g
24b
24cc
24b
8d
24a
24b
24a
8e
=11
24g
24a
24g
8d
12e
12g
12b
4a
8r
16ee
16aa
=12
24g
24a
24g
8d
12e
12g
12b
4a
8r
16ee
16aa
=13
24aa
24bb
24aa
8ff#
24dd
24ee
24dd
8b
24a
24b
24a
8f#
24d
24e
24d
8B
=14
8A
8d
8B
8f#
4d
4r
=15
4r
24g
24a
24g
8r
8e
8f#
8g
8a
=16
32d
16.b
8cc
8dd
8ee
16.ff#
32ff#
8aa
8gg
8dd
=17
4r
24g
24a
24g
8r
8e
8f#
8g
8a
=18
32d
16.b
8cc
8dd
8ee
16.ff#
32ff#
8aa
8gg
8dd
=19
4aa
4gg
4aa
4gg
=20
4aa
2gg
4dd
=21
4bb
4aa
4bb
4aa
=22
4bb
2aa
4ee
=23
24ddd
24eee
24ddd
8bb
24gg
24aa
24gg
8ee
24dd
24ee
24dd
8b
24g
24a
24g
8e
=24
24ddd
24eee
24ddd
8bb
24gg
24aa
24gg
8ee
24dd
24ee
24dd
8b
24g
24a
24g
8e
=25
24d
24e
24d
8B
4r
2r
=26
1r
=27
4d
4r
16d
8.f#
4r
=28
8gg
24f#
24g
24f#
8e
24d
24e
24d
8B
8d
4e[
=29
8e]
8a
8cc
8ee
8f#
8a
8dd
8ff#
=30
8gg
24f#
24g
24f#
8e
24d
24e
24d
8B
8d
4e[
=31
8e]
8a
8cc
8ee
8r
8a
8ee
8ff#
=32
8bb
24aa#
24bb
24aa#
8gg#
24ff#
24gg#
24ff#
8dd#
8ff#
4gg#
=33
8bb
24aa#
24bb
24aa#
8gg#
24ff#
24gg#
24ff#
8dd#
8ff#
4gg#
=34
4bb
4bb
4r
4ccc
=35
4ddd
4ddd
8r
24c
24d
24c
8B
24A
24B
24A
=36
4G
4G
4r
32g
32b
16dd
8gg
=37
1r
=38
1r
=39
1r
=40
1r
=41
1r
=42
12B
12c
12d
4c[
8c]
8g
8e
8c
=43
12B
12c
12d
4c[
8c]
8g
8e
8c
=44
8d
8e
8f
8g
8a
8b
8cc
8dd
=45
8ee
8ff#
8ff#
8ff#
8bb
8bb
8bb
8bb
=46
12gg
12aa
12bb
4aa[
8aa]
8ccc
8bb
8ddd
=47
8ccc
8eee
8ddd
8fff
8eee
8ggg
8fff
8aaa
=48
8ggg
8eee
8fff
8ddd
8eee
8ccc
8ddd
8bb
=49
8aa
8ccc
4bb
2bb
=50
12B
12c#
12d#
4c#
8c#
8f#
8d#
8c#
=51
12B
12c#
12d#
4c#
8c#
8f#
8d#
8c#
=52
8B
8e
8c#
8f#
8d#
8g#
8e
8a
=53
8f#
8b
8g#
8cc#
8a
8dd#
8b-
8dd#
=54
12B
12c#
12d#
4c#
8c#
8f#
8d#
8c#
=55
12B
12c#
12d#
4c#
8c#
8f#
8d#
8c#
=56
8B-
8d#
8c
8f
8d
8g
8d#
8g#
=57
8f
8b-
8g
8cc
8g#
8dd
8cc
8ff
=58
24dd#
24ff
24dd#
8b-
8cc#
8g
8dd#
8b-
8cc#
8g
=59
24dd#
24ff
24dd#
8b-
8cc#
8g
8dd#
8b-
8cc#
8g
=60
24dd#
24ff
24dd#
8b-
8cc#
8g
8dd#
8b-
8cc#
8g
=61
24dd#
24ff
24dd#
8b-
8cc#
8g
8dd#
8b-
8cc#
8g
=62
24ee
24ff#
24ee
8b
8dd
8g
24b
24cc
24b
8d
8a
8e
=63
24ee
24ff#
24ee
8b
8dd
8g
24b
24cc
24b
8d
8a
8e
=64
24g
24a
24g
8d
12e
12g
12b
24g
24a
24g
8d
12e
12g
12b
=65
24a
24b
24a
8e
8ee
8dd
8bb
8aa
8ff#
8dd
=66
24ee
24ff#
24ee
8b
8dd
8g
24b
24cc
24b
8d
8a
8e
=67
24ee
24ff#
24ee
8b
8dd
8g
24b
24cc
24b
8d
8a
8e
=68
24g
24a
24g
8d
12e
12g
12b
4a
8r
16ee
16aa
=69
24g
24a
24g
8d
12e
12g
12b
4a
8r
16ee
16aa
=70
24aa
24bb
24aa
8ff#
8dd
8b
24a
24b
24a
8f#
8d
8B
=71
8A
8d
8B
8f#
4d
4r
=72
4r
24a
24b
24a
8r
8d
8e
8f
8g
=73
8a
8b
8cc
8ee
8dd
8ee
8ff
8aa
=74
4r
24a
24b
24a
8r
8d
8e
8f
8g
=75
8a
8b
8cc
8ee
8dd
8ee
8ff
8aa
=76
24gg
24aa
24gg
8ee
4r
4r
8dd#
8ff#
=77
24gg
24aa
24gg
8ee
4r
4r
8dd
8ff#
=78
24ee
24ff#
24ee
8cc
4r
4r
8b
8dd
=79
24ee
24ff#
24ee
8cc
4r
4r
8b
8dd
=80
4r
8a
8dd
4r
8g
8dd
=81
4r
8a
8dd
4r
8d
8dd
=82
24eee
24fff#
24eee
8r
4bb
24ddd
24eee
24ddd
8r
4gg
=83
24bb
24ccc
24bb
8r
4dd
24aa
24bb
24aa
8r
4ee
=84
24eee
24fff#
24eee
8r
4bb
24ddd
24eee
24ddd
8r
4gg
=85
4r
4dd
4gg
4bb
=86
24ddd
24eee
24ddd
8r
4aa
24ccc
24ddd
24ccc
8r
4ff
=87
24aa
24bb
24aa
8r
4dd
24gg
24aa
24gg
8r
4dd
=88
24ddd
24eee
24ddd
8r
4aa
24ccc
24ddd
24ccc
8r
4aa
=89
4r
4cc
4ff
4aa
=90
1r
=91
1r
=92
1r
=93
1r
=94
12c
12d
12e
2d
8e
8d
=95
12c
12d
12e
4d[
8d]
8g
8e
8a
=96
8f#
8b
8g
8cc
8a
8dd
8b
8ee
=97
8g
8cc
8a
8dd
8b
8ee
8cc
8ff#
=98
8dd
8ff#
8ee
8gg
8ff#
8aa
8gg
8bb
=99
8aa
8ccc
8bb
8ddd
8ccc
8eee
8ddd
8fff#
=100
8gg
24f#
24g
24f#
8e
24d
24e
24d
8B
8d
4e[
=101
8e]
8a
8cc
8ee
8f#
8a
8dd
8ff#
=102
8gg
24f#
24g
24f#
8e
24d
24e
24d
8B
8d
4e[
=103
8e]
8a
8cc
8ee
8r
8a
8ee
8ff#
=104
8bb
24aa#
24bb
24aa#
8gg#
24ff#
24gg#
24ff#
8dd#
8ff#
4gg#
=105
8bb
24aa#
24bb
24aa#
8gg#
24ff#
24gg#
24ff#
8dd#
8ff#
4gg#
=106
4bb
4bb
4r
4ccc
=107
4ddd
4ddd
8r
24c
24d
24c
8B
24A
24B
24A
=108
4G
4G
4r
32g
32b
16dd
8gg
=109
32g
32b
16dd
8gg
4r
4G
4r
=110
4G
4r
2r
==
*-
